X:252
T:All the Fleas
M:3/4
L:1/8
K:G
|: "G"B>c d2 e>d | ((3BdB) G4 | B>c d2 e>d| "D7"((3cBc) A4|
A>B c2 d2 | f>e d3 (g|f)>e d>c A>F| "G"G2G3z:|
|: "C"b>g e3 (g| "G"b)>g d3 (g | "D7"f)>e d>c B>A | "G"G2 B>d g2|
"C"b>g e3 (g| "G"b)>g d3 (g|"D7"f)>e d>c A>F| "G"G2G3z:|
